X:181
T:The Little Black Rose
N:"Slow" "No. 3."
B:O'Neill's 181
Z:Transcribed by henrik.norbeck@mailbox.swipnet.se
M:3/4
L:1/8
K:Gm
AGF|D2 D2 AGF|D2 D2 GA|""B4 A2|""G4 GA|
""B2- BdcB|""A2- AcBA|""G4 G2|G4||
DE|""F2- F.G.A.B|c2- cd c/B/A/G/|F2 DE TE2|F2- D.A.c|
BcB2- B.A.G.F|.G.A.B.c AG|G4 G2|G4 DE|
F2- F.G.A.B|c2 cd c/B/A/G/|F2 DE TE2|F2- FD.A.c|
BcB2- BAGF|.G.A.B.c AG|""G4 G2|G4||
